X:263
T: Delvin House
N: O'Farrell's Pocket Companion v.3 (Sky ed. p.98)
M: 6/8
L: 1/8
R: jig
Q: 320
K: G
D/E/|GGG GGG| GBd dBG| GAG GAG| ABd e2g |
dBG GAB|Bge dBG |AGA BAB| GEE E2 :|
d |: g>ag gab| dBG dBG| g>ag gab| age e2d|
g>ag gab| dBG dBG|AGA BAB |GEE E2D |
g>ag gab| dBG dBG|gfg aga |bag e2d |
g>ab e>fg | dBG dBG| AGA BAB| GEE E3 ||
